X:1
T:Light Of The Seven
T: Mhysa (Advanced Piano Solo)
T: Game Of Thrones OST Season 3 Episode 10
T: Composed by Ramin Djawadi Piano arrangement by Nicolas Del Gallo Full playthrough and more at https://www.youtube.com/c/NDGmusic If you want to donate, please check out my Patreon ☺ https://www.patreon.com/ndg 
C:Ramin Djawadi
%%score { ( 1 4 5 ) | ( 2 3 ) }
L:1/8
Q:1/4=80
M:6/4
K:F
V:1 treble nm="Piano" snm="Pno."
V:4 treble 
V:5 treble 
V:2 bass 
V:3 bass 
V:1
"^\n" !arpeggio![A,DF]12 | !arpeggio![A,DE]12 | !arpeggio![D,A,DF]12 | !arpeggio![B,DF]12 | %4
 !arpeggio![G,CEG]12 | [A,F]12 | !arpeggio![A,DFA]2 D2 FG [FA]2 D4 |[M:9/4] F2 G2 F2 E12 | %8
[M:6/4] !fermata![D,A,D]12 |[M:4/4] D2 A,2 B,C D2 | A,8 | D2 A,2 B,C D2- | D8 | C2 A,2 =B,C D2 | %14
 !fermata!A,8 | A2 D2 FG !arpeggio![C-D-A]2 | [CDG]8 | !arpeggio!c2 A2 =Bc B2 | E8 | A2 C2 DE F2 | %20
 [B,-E]8 | B,8- | B,8 | x8 ||[M:6/8][Q:1/8=150] D/D/ D2 D D2 | D/G/ F2- F3 | D/F/ E2 E E2 | %27
 C/E/ D2- D3 | D/D/ D2 D D2 | D/G/ F2- F3 | D/F/ E2 E E2 | C/E/ D2- D3 || D/D/ D2 D D2 | %33
 D/G/ F2- F3 | D/F/ E2 E E2 | C/E/ D2- D3 | D/D/ D2 D D2 | D/G/ F2- F3 | E6 || %39
 [Adfa]/[cc']/[Aa]F/G/ [DFA][DFA][DFA] | [Acfa]/[cc']/[Aa]G/A/ [CFG][CFG][CFG] | %41
 [Acea]/[cc']/[Aa]A/=B/ [EAc][EAc][EAc] | [Ada]/[cc']/[=B=b] z/ z/ [DGB][DGB][DGB] | %43
 [Acfa]/[cc']/[Aa] z/ z/ [CFA][CFA][CFA] | [Acea]/[cc']/[Aa] z/ z/ [EAc][EAc][EAc] | %45
 [Ada]/[cc']/[=B=b] z/ z/ [DGB][DGB][DGB] | [=B=b]/[dd']/[^c^c'] z/ z/ [EAc][EAc][EAc] | %47
 !>![F,A,D]2 A,2 [F,B,][G,C] | !>![E,G,D]2 A,2 [G,B,][E,C] | !>![F,A,B,D]2 [F,A,DF]2 [G,DG][A,DA] | %50
 !>![B,DGB]2 [A,DFA]2 DF | [B,DG]2 D2 _EF | [B,DG]2 D2 _EF | [G,B,_EG]2 E2 [A,F][B,G] | %54
 [A,DA]2 ^F2 [G,B,DG][A,CFA] | [GBdg]/[Bb]/[Gdg]- [Gdg]4 | [Gg]/[cc']/[B_eb]- [Beb]4 | %57
 [Gg]/[Bb]/[A_ea]- [Aea]4 | [Ff]/[Aa]/[Gdg]- [Gdg]4 | [Gg]/[Bb]/[G_eg]- [Geg]4 | %60
 [Gg]/[=B=b]/[Aa-] a4 | [dd']/[ff']/[dd']- [dd']4 | [cc']/[ff']/[cc']- [cc']4 | %63
 [cc']/[ee']/[cc']- [cc']4 | [cc']/[ee']/[dd']- [dd']4 | [Acfa]2 [Ee]2 [Ff][Gg] | %66
 [Acea]2 [Ee]2 [Ff][Gg] | [=Bdg=b]4 [Ee]2 | [Aa]6 | [D,F,A,D]2 A,2 B,C | [E,G,CE]2 C2 DE | %71
 [F,B,DF]2 D2 EF | [G,B,_EG]6 | z6 |] %74
V:2
 [D,,D,]12 | [D,,D,]12 | [D,,,D,,]12 | [D,,B,,D,]12 | [C,,C,]12 | [D,,D,]12 | D,12 | %7
[M:9/4] [C,,C,]6- [C,,C,]12 |[M:6/4] [D,,,D,,]12 |[M:4/4] D,8- | [C,D,]8 | D,8- | [C,D,]8 | A,,8- | %14
 A,,8 | [D,A,D]6 [C,G,A,]2- | [C,G,A,]8 | [A,,,A,,]6 [E,,,E,,]2- | [E,,,E,,]8 | %19
 [F,,,F,,]7 [E,,,E,,]- | [E,,,E,,]8- | [E,,,E,,]8- | [E,,,E,,]8- | %23
 [E,,,E,,]4!<(! !///-!D,,,2 D,,2!<)! || %24
[M:6/8]!ff! [D,,D,]/[D,,D,]/ [D,,D,]2 !arpeggio![D,,,D,,] [D,,,D,,]2 | %25
 [B,,,B,,]/[B,,,B,,]/ [B,,,B,,]2 !arpeggio![B,,,,B,,,] [B,,,,B,,,]2 | %26
 [C,,C,]/[C,,C,]/ [C,,C,]2 !arpeggio![C,,,C,,] [C,,,C,,]2 | %27
 [D,,D,]/[D,,D,]/ [D,,D,]2 [D,,,D,,][D,,,D,,][D,,,D,,] | %28
 [B,,,B,,]/[B,,,B,,]/ [B,,,B,,]2 [B,,,B,,] [B,,,B,,]2 | %29
 [D,,D,]/[D,,D,]/ [D,,D,]2 [D,,D,] [D,,D,]2 | %30
 [A,,,A,,]/[A,,,A,,]/ [A,,,A,,]2 [A,,,A,,] [A,,,A,,]2 | %31
 [G,,,G,,]/[G,,,G,,]/ [G,,,G,,]2 [G,,,G,,] [G,,,G,,]2 || %32
 [D,,D,]/[D,,D,]/ [D,,D,]2 [D,,,D,,] [D,,,D,,]2 | %33
 [B,,,B,,]/[B,,,B,,]/ [B,,,B,,]2 [B,,,B,,] [B,,,B,,]2 | %34
 [C,,C,]/[C,,C,]/ [C,,C,]2 [C,,C,] [C,,C,]2 | %35
 [D,,D,]/[D,,D,]/ [D,,D,]2 [D,,,D,,][D,,,D,,][D,,,D,,] | %36
 [B,,,B,,]/[B,,,B,,]/ [B,,,B,,]2 [B,,,B,,] [B,,,B,,]2 | %37
 [D,,D,]/[D,,D,]/ [D,,D,]2 [D,,D,] [D,,D,]2 | %38
 [A,,,A,,]/[A,,,A,,]/ [A,,,A,,]2 [A,,,A,,][A,,,A,,][A,,,A,,] || %39
 [D,,D,]/!f!A,,/D,/F,/A,/D/ A,/F,/D,/A,,/F,,/D,,/ | %40
 [C,,C,]/F,,/A,,/C,/F,/A,/ F,/C,/A,,/F,,/C,,/F,,/ | [E,,E,]/A,,/C,/E,/A,/C/ A,/E,/C,/A,,/E,,/A,,/ | %42
 [D,,D,]/G,,/=B,,/D,/G,/=B,/ D/B,/G,/D,/B,,/G,,/ | [F,,F,]/A,,/C,/F,/A,/C/ A,/F,/C,/A,,/F,,/C,,/ | %44
 [E,,E,]/A,,/C,/E,/A,/C/ A,/E,/C,/A,,/E,,/A,,/ | [D,,D,]/G,,/=B,,/D,/G,/=B,/ D/B,/G,/D,/B,,/G,,/ | %46
 [A,,,A,,]/E,,/A,,/^C,/E,/A,/ ^C/A,/E,/C,/A,,/E,,/ | %47
 [D,,D,]/[D,,D,]/ [D,,D,]2 [D,,,D,,] [D,,,D,,]2 | [C,,C,]/[C,,C,]/ [C,,C,]2 [C,,,C,,] [C,,,C,,]2 | %49
 [B,,,B,,]/[B,,,B,,]/ [B,,,B,,]2 [B,,,B,,] [B,,,B,,]2 | %50
 [A,,A,]/[A,,,A,,]/ [A,,,A,,]2 [A,,,A,,] [A,,,A,,]2 | [G,,G,]/[G,,G,]/ [G,,G,]2 [G,,G,] [G,,G,]2 | %52
 [F,,F,]/[F,,F,]/ [F,,F,]2 [F,,F,] [F,,F,]2 | [_E,,_E,]/[E,,E,]/ [E,,E,]2 [E,,E,] [E,,E,]2 | %54
 [D,,D,]/[D,,D,]/ [D,,D,]2 [D,,,D,,][D,,,D,,][D,,,D,,] | [G,,,G,,]>G,,D,/G,/ B,>G,D,/B,,/ | %56
 [_E,,,_E,,]>E,,B,,/_E,/ G,>E,B,,/G,,/ | [C,,,C,,]>G,,C,/_E,/ G,>E,C,/G,,/ | %58
 [G,,,G,,]>G,,D,/G,/ B,>G,D,/B,,/ | !>![C,,,C,,]>G,,C,/_E,/ G,>E,C,/G,,/ | %60
 [A,,,A,,]>A,,^C,/E,/ A,>A,E,/C,/ | [D,,D,]/A,,/D,/F,/A,/D/ D/A,/F,/D,/A,,/D,,/ | %62
 [F,,,F,,]/C,,/F,,/A,,/C,/F,/ A,/F,/C,/A,,/F,,/C,,/ | %63
 [A,,,A,,]/E,,/A,,/C,/E,/A,/ C/A,/E,/C,/A,,/E,,/ | %64
 [G,,,G,,]/D,,/G,,/=B,,/D,/G,/ =B,/G,/D,/B,,/G,,/D,,/ | %65
 [F,,,F,,]/[F,,,F,,]/ [F,,,F,,]2 [C,F,A,][C,F,A,][C,F,A,] | %66
 [A,,,A,,]/[A,,,A,,]/ [A,,,A,,]2 [E,A,C][E,A,C][E,A,C] | %67
 [G,,,G,,]/[G,,,G,,]/[G,,,G,,][=B,,D,G,] [B,,D,G,][D,G,=B,][D,G,B,] | %68
 [A,,A,][A,,A,]/[A,,A,]/[A,,A,] [A,,A,]/[A,,A,]/[A,,A,]/[A,,A,]/[A,,A,]/[A,,A,]/ | %69
 !>![D,,,D,,][D,,D,]/[D,,D,]/[D,,D,] [D,,D,]/[D,,D,]/[D,,D,]/[D,,D,]/[D,,D,]/[D,,D,]/ | %70
 !>![D,,,D,,][D,,D,]/[D,,D,]/[D,,D,] [D,,D,]/[D,,D,]/[D,,D,]/[D,,D,]/[D,,D,]/[D,,D,]/ | %71
 !>![D,,,D,,][D,,D,]/[D,,D,]/[D,,D,] [D,,D,]/[D,,D,]/[D,,D,]/[D,,D,]/[D,,D,]/[D,,D,]/ | %72
 [_E,,_E,]6 | [D,,,D,,D,]6 |] %74
V:3
 z6!p! D,,,6- | D,,,12 | x12 | x12 | x12 | x12 | D,,6 C,,6 |[M:9/4] x18 |[M:6/4] x12 |[M:4/4] x8 | %10
 x8 | x8 | x8 | z6 [G,,G,]2- | [G,,G,]8 | x8 | x8 | x8 | x8 | x8 | x8 | x8 | x8 | x8 ||[M:6/8] x6 | %25
 x6 | x6 | x6 | x6 | x6 | x6 | x6 || x6 | x6 | x6 | x6 | x6 | x6 | x6 || x6 | x6 | x6 | x6 | x6 | %44
 x6 | x6 | x6 | x6 | x6 | x6 | x6 | x6 | x6 | x6 | x6 | x6 | x6 | x6 | x6 | x6 | x6 | x6 | x6 | %63
 x6 | x6 | x6 | x6 | x6 | x6 | x6 | x6 | x6 | x6 | x6 |] %74
V:4
 x12 | x12 | x12 | x12 | x12 | E4 D8 | x6 [A,C]6 |[M:9/4] [G,-C-E]6 [G,C]12 |[M:6/4] x12 | %9
[M:4/4] [F,A,]8 | x8 | [F,A,]8 | x8 | E,8 | x8 | x8 | x8 | [A,E]6 [=B,-E]2 | B,8 | %19
 [A,C]7 [E,=B,]- | E,8- | E,8 | x8 | x8 ||[M:6/8] A,/F,/A,/F,/A,/F,/ A,/F,/A,/F,/A,/F,/ | %25
 B,/F,/B,/F,/B,/F,/ B,/F,/B,/F,/B,/F,/ | C/G,/C/G,/C/G,/ C/G,/C/G,/C/G,/ | %27
 x3/2 F,/A,/F,/ A,/F,/A,/F,/A,/F,/ | B,/F,/B,/F,/B,/F,/ B,/F,/B,/F,/B,/F,/ | %29
 z/ A,/D/A,/D/A,/ D/A,/D/A,/D/A,/ | C/A,/C/A,/C/A,/ C/A,/C/A,/C/A,/ | %31
 G,/E,/[G,=B,]/D,/G,/D,/ G,/D,/G,/D,/G,/D,/ || dAB/c/ dAB/c/ | dFB/c/ dFB/c/ | eGc/d/ eGA/c/ | %35
 dAB/c/ dAB/c/ | dFB/c/ dFB/c/ | dAB/c/ dAB/c/ | eAc/d/ eAe || x6 | x6 | x6 | x6 | x6 | x6 | x6 | %46
 x6 | x6 | x6 | x6 | x6 | x6 | x6 | x6 | x6 | z3 [DGB][DGB][DGB] | z3 [_EGB][EGB][EGB] | %57
 z3 [C_EG][CEG][CEG] | z3 [DGB][DGB][DGB] | z3 [C_EG][CEG][CEG] | z3 x3 | z3 [FAd][FAd][FAd] | %62
 z3 [CFA][CFA][CFA] | z3 [EAc][EAc][EAc] | z3 [DG=B][DGB][DGB] | x6 | x6 | x6 | x6 | x6 | x6 | x6 | %72
 x6 | x6 |] %74
V:5
 x12 | x12 | x12 | x12 | x12 | x12 | x12 |[M:9/4] x18 |[M:6/4] x12 |[M:4/4] x8 | x8 | x8 | x8 | %13
 x8 | x8 | x8 | x8 | x8 | x8 | x8 | x8 | G2 E6 | A4 E4- | E8 ||[M:6/8] x6 | x6 | x6 | x6 | x6 | %29
 x6 | x6 | x6 || x6 | x6 | x6 | x6 | x6 | x6 | x6 || x6 | x6 | x6 | x6 | x6 | x6 | x6 | x6 | x6 | %48
 x6 | x6 | x6 | x6 | x6 | x6 | x6 | x6 | x6 | x6 | x6 | x6 | x3/2 E/G/F/ A/F/G/A/^c/A/ | x6 | x6 | %63
 x6 | x6 | x6 | x6 | x6 | x6 | x6 | x6 | x6 | x6 | x6 |] %74

